X: 66
T: Aldı Beni Aldı Beni
C: Çorlulu Âşık
O: Turkey
F: http://compmusic.upf.edu/node/140
N: hicazkar--fantezi--duyek--aldi_beni--corlulu
N: makam= hicazkar
N: form= fantezi
N: usul= duyek = 8/4
M: 8/4
L: 1/16
K: C _1/4B _7/8e _7/8A ^f
Q: 1/4=126
%%MIDI tuningsystem comma53
z14 GA  | B6 AB c6 de  | dc cB BA AG G6 GA  | \
w:   |   |   | 
B6 AB c6 de  | 
w:   | 
dc cB BA AG G6 GA  | B6 AB c6 de  | dc cB BA AG G6 GA  | 
w:   |   |   | 
B6 AB c6 de  | dc cB BA AG G8  | f2 g4 =a2 _b3a a2 g2  | 
w:   |   |  Al dı  *  be *  ni   | 
g2 =a2 g2 f2 fe ed d4  | g2 g2 g2 =a2 _ba g2 ba gf  | \
w:  al dı  *  *  be *  *  *  ni   |  i ki  ka şın_ a *  *  *  *  ra  | 
g2 =a_b c'2 ba ag gf e3/2d/ c2  | 
w:  sı  *  *  *  a *  man  *  a *  man    | 
f2 g4 =a2 _b3a a2 g2  | g2 =a2 g2 f2 fe ed d4  | \
w:  Al dı  *  be *  ni   |  al dı  *  *  be *  *  *  ni   | 
g2 g2 g2 =a2 _ba g2 ba gf  | 
w:  i ki  ka şın_ a *  *  *  *  ra  | 
g6 d2 e3/2d/ ef g4  | c2 d4 e2 c4 g4  | \
w:  sı   SAZ  |  Yak tı  *  be ni   | 
=f2 _a2 g2 f2 _e2 d2 c2 _B2  | c2 d_e =fe dc _B3_A BA AG  | 
w:  kül_ ey *  *  le *  di   |  göz le *  ri *  nin  *  ka *  *  *  ra  | 
G6 de d3/2c/ Bc d4  | c2 d4 e2 c4 g4  | \
w:  sı   SAZ  |  Yak tı  *  be ni   | 
=f2 _a2 g2 f2 _e2 d2 c2 _B2  | 
w:  kül_ ey *  *  le *  di   | 
c2 d_e =fe dc _B3_A BA AG  | G6 ba g3/2f/ ef g4  | 
w:  göz le *  ri *  nin  *  ka *  *  *  ra  |  sı   SAZ  | 
f2 g4 =a2 _b3a a2 g2  | g2 =a2 g2 f2 fe ed d4  | \
w:  İ çi *  niz *  de   |  ta bip  *  *  yok  *  *  *  mu   | 
g2 g2 g2 =a2 _ba g2 ba gf  | 
w:  ne dir  bu nun  ça *  *  *  *  re  | 
g2 =a_7/8b c'2 _ba ag gf e3/2d/ c2  | \
w:  si  *  *  *  a *  man  *  a *  man    | 
f2 g4 =a2 _b3a a2 g2  | g2 =a2 g2 f2 fe ed d4  | 
w:  İ çi *  niz *  de   |  ta bip  *  *  yok  *  *  *  mu   | 
g2 g2 g2 =a2 _ba g2 ba gf  | g6 d2 e3/2d/ ef g4  | \
w:  ne dir  bu nun  ça *  *  *  *  re  |  si   SAZ  | 
c2 d4 e2 c4 g4  | 
w:  Sev dim  ne  ça re   | 
=f2 _a2 g2 f2 _e2 d2 c2 _B2  | c2 d_e =fe dc _B3_A BA AG  | 
w:  ne  söy le sem  o  yâ re   |  el *  *  ler  *  *  *  â *  rif  | 
G6 fg f3/2e/ dc d4  | c2 d4 e2 c4 g4  | \
w:  tir   SAZ  |  Sev dim  ne  ça re   | 
=f2 _a2 g2 f2 _e2 d2 c2 _B2  | 
w:  ne  söy le sem  o  yâ re   | 
c2 d_e =fe dc _B3_A BA AG  | G6 de dc BA G2 GA  | 
w:  el *  *  ler  *  *  *  â *  rif  |  tir   SAZ *  *  *  *  *  *  A  | 
B6 AB c6 de  | dc cB BA AG G6 GA  | B6 AB c6 de  | 
w:  man  a *  man  ka  |  şı  *  *  *  ke *  *  *  man  a  |  man  a *  man  ha  | 
dc cB BA AG G6 GA  | B6 AB c6 de  | dc cB BA AG G6 GA  | 
w:  lim  *  *  *  ya *  *  *  man   A  |  man  a *  man  ka  |  şı  *  *  *  ke *  *  *  man  a  | 
B6 AB c6 de  | dc cB BA AG G6 z2  | |


